symbols/web/subtitles/materialsymbolsoutlined/subtitles_wght100gradN25_24px.svg

<svg xmlns="http://www.w3.org/2000/svg" height="24" width="24"><path d="M6.75 11.925h.65V11.3h-.65Zm0 3.325h7.925v-.625H6.75Zm9.875 0h.625v-.625h-.625Zm-7.3-3.325h7.925V11.3H9.325Zm-4.475 6.65q-.6 0-1.012-.412-.413-.413-.413-1.013V6.85q0-.6.413-1.025Q4.25 5.4 4.85 5.4h14.3q.6 0 1.013.425.412.425.412 1.025v10.3q0 .6-.412 1.013-.413.412-1.013.412Zm-.775-.625V6.05v11.9Zm.8 0H19.15q.3 0 .55-.25.25-.25.25-.55V6.85q0-.3-.25-.55-.25-.25-.55-.25H4.875q-.3 0-.55.25-.25.25-.25.55v10.3q0 .3.25.55.25.25.55.25Z"/></svg>

<svg xmlns="http://www.w3.org/2000/svg" height="24" width="24"><path d="M6.75 11.925H7.4V11.3H6.75ZM6.75 15.25H14.675V14.625H6.75ZM16.625 15.25H17.25V14.625H16.625ZM9.325 11.925H17.25V11.3H9.325ZM4.85 18.575Q4.25 18.575 3.838 18.163Q3.425 17.75 3.425 17.15V6.85Q3.425 6.25 3.838 5.825Q4.25 5.4 4.85 5.4H19.15Q19.75 5.4 20.163 5.825Q20.575 6.25 20.575 6.85V17.15Q20.575 17.75 20.163 18.163Q19.75 18.575 19.15 18.575ZM4.875 17.95Q4.525 17.95 4.3 17.725Q4.075 17.5 4.075 17.15V6.85Q4.075 6.5 4.3 6.275Q4.525 6.05 4.875 6.05Q4.525 6.05 4.3 6.275Q4.075 6.5 4.075 6.85V17.15Q4.075 17.5 4.3 17.725Q4.525 17.95 4.875 17.95ZM4.875 17.95H19.15Q19.45 17.95 19.7 17.7Q19.95 17.45 19.95 17.15V6.85Q19.95 6.55 19.7 6.3Q19.45 6.05 19.15 6.05H4.875Q4.575 6.05 4.325 6.3Q4.075 6.55 4.075 6.85V17.15Q4.075 17.45 4.325 17.7Q4.575 17.95 4.875 17.95Z"/></svg>
